html/dist/img/svg/footer_tentacle.svg

<svg width="1920" height="1440" viewBox="0 0 1920 1440" fill="none" xmlns="http://www.w3.org/2000/svg"><g clip-path="url(#clip0)"><mask id="mask0" maskUnits="userSpaceOnUse" x="-720" y="-206" width="3043" height="1864"><path transform="matrix(-1 0 0 1 2322 -206)" fill="#C4C4C4" d="M0 0h3041v1864H0z"/></mask><g mask="url(#mask0)"><path d="M-111.836 1427.99V919.992c0-.321-.125-.42.135-.608 8.8-6.355 446.896-321.617 842.365-391.74 794.946-140.955 1400.496 137 1400.496 137v158.5S1118.5 593.5 847.5 957c-343.374 460.58-937.657 471.74-958.758 471.99-.555.01-.578-.44-.578-1z" fill="#404040"/><path d="M1078.16 3.981c528.83-27.574 1073.25 92.745 1089.7 96.415.46.101.38.417.38.885v608.596c0 .74-.38 1.418-1.04 1.097C2137.11 696.475 1463.42 377.409 889.5 591 302.666 809.396 360.435 1018.76-177.895 952.593c-.501-.061-.909-.491-.909-.996V317.231c0-.306-.093-.413.149-.601 8.079-6.273 346.668-265.192 1256.815-312.649z" fill="#4F4F4F"/><ellipse rx="145.282" ry="40.797" transform="scale(1 -1) rotate(.707 61025.276 117278.706)" fill="#EE6D8F"/><ellipse rx="155.878" ry="47.635" transform="scale(1 -1) rotate(18.613 2983.56 2932.25)" fill="#EE6D8F"/><ellipse rx="155.878" ry="62.743" transform="scale(1 -1) rotate(41.866 1725.255 492.228)" fill="#EE6D8F"/><ellipse rx="146.065" ry="77.74" transform="scale(1 -1) rotate(29.106 1874.95 1115.37)" fill="#EE6D8F"/><ellipse rx="107.8" ry="57.374" transform="scale(1 -1) rotate(14.17 3081.717 4022.776)" fill="#EE6D8F"/><ellipse rx="107.8" ry="41.968" transform="scale(1 -1) rotate(-3.284 -9711.951 -24361.19)" fill="#EE6D8F"/><ellipse rx="94.367" ry="34" transform="scale(1 -1) rotate(-7.177 -4207.803 -13732.383)" fill="#EE6D8F"/><ellipse rx="190.377" ry="101.324" transform="scale(1 -1) rotate(29.152 2114.92 323.775)" fill="#EE6D8F"/><ellipse rx="215.546" ry="114.719" transform="scale(1 -1) rotate(18.212 3503.006 -621.847)" fill="#EE6D8F"/><ellipse rx="155.878" ry="75.965" transform="scale(1 -1) rotate(29.503 2605.194 260.41)" fill="#EE6D8F"/><ellipse rx="155.878" ry="70.943" transform="scale(1 -1) rotate(9.014 8687.342 -374.25)" fill="#EE6D8F"/><ellipse rx="138.105" ry="80.422" transform="scale(1 -1) rotate(24.036 2568.984 -851.881)" fill="#EE6D8F"/><ellipse rx="156.63" ry="44.813" transform="scale(1 -1) rotate(-6.464 -5884.564 -16754.448)" fill="#EE6D8F"/></g></g><defs><clipPath id="clip0"><path fill="#fff" d="M0 0h1920v1440H0z"/></clipPath></defs></svg>

<svg width="1920" height="1440" viewBox="0 0 1920 1440" fill="none" xmlns="http://www.w3.org/2000/svg">
<g clip-path="url(#clip0)">
<mask id="mask0" mask-type="alpha" maskUnits="userSpaceOnUse" x="-720" y="-206" width="3043" height="1864">
<rect width="3041" height="1864" transform="matrix(-1 8.74228e-08 8.74228e-08 1 2322 -206)" fill="#C4C4C4"/>
</mask>
<g mask="url(#mask0)">
<path d="M-111.836 1427.99L-111.836 919.992C-111.836 919.671 -111.961 919.572 -111.701 919.384C-102.901 913.029 335.195 597.767 730.664 527.644C1525.61 386.689 2131.16 664.644 2131.16 664.644L2131.16 823.144C2131.16 823.144 1118.5 593.5 847.5 957C504.126 1417.58 -90.1569 1428.74 -111.258 1428.99C-111.813 1429 -111.836 1428.55 -111.836 1427.99Z" fill="#404040"/>
<path d="M1078.16 3.98125C1606.99 -23.5926 2151.41 96.726 2167.86 100.396C2168.32 100.497 2168.24 100.813 2168.24 101.281L2168.24 709.877C2168.24 710.617 2167.86 711.295 2167.2 710.974C2137.11 696.475 1463.42 377.409 889.5 591C302.666 809.396 360.435 1018.76 -177.895 952.593C-178.396 952.532 -178.804 952.102 -178.804 951.597L-178.804 317.231C-178.804 316.925 -178.897 316.818 -178.655 316.63C-170.576 310.357 168.013 51.4381 1078.16 3.98125Z" fill="#4F4F4F"/>
<ellipse rx="145.282" ry="40.797" transform="matrix(0.999924 -0.0123358 -0.0123358 -0.999924 1451.37 743.872)" fill="#EE6D8F"/>
<ellipse rx="155.878" ry="47.6346" transform="matrix(0.947698 -0.319169 -0.319169 -0.947698 1091.93 798.897)" fill="#EE6D8F"/>
<ellipse rx="155.878" ry="62.7427" transform="matrix(0.744706 -0.667393 -0.667393 -0.744706 768.957 1025.76)" fill="#EE6D8F"/>
<ellipse rx="146.065" ry="77.7396" transform="matrix(0.873721 -0.486427 -0.486427 -0.873721 779.313 771.179)" fill="#EE6D8F"/>
<ellipse rx="107.8" ry="57.3738" transform="matrix(0.969572 -0.244806 -0.244806 -0.969572 1078.57 632.018)" fill="#EE6D8F"/>
<ellipse rx="107.8" ry="41.9675" transform="matrix(0.998358 0.0572891 0.0572891 -0.998358 1379.68 596.399)" fill="#EE6D8F"/>
<ellipse rx="94.3666" ry="33.9997" transform="matrix(0.992165 0.124936 0.124936 -0.992165 1682.7 633.302)" fill="#EE6D8F"/>
<ellipse rx="190.377" ry="101.324" transform="matrix(0.873329 -0.487131 -0.487131 -0.873329 425.62 989.23)" fill="#EE6D8F"/>
<ellipse rx="215.546" ry="114.719" transform="matrix(0.949906 -0.312537 -0.312537 -0.949906 -18.8693 1125.97)" fill="#EE6D8F"/>
<ellipse rx="155.878" ry="75.9649" transform="matrix(0.870328 -0.492473 -0.492473 -0.870328 466.066 1249.22)" fill="#EE6D8F"/>
<ellipse rx="155.878" ry="70.9433" transform="matrix(0.987651 -0.156668 -0.156668 -0.987651 48.6442 1365.65)" fill="#EE6D8F"/>
<ellipse rx="138.105" ry="80.4225" transform="matrix(0.913287 -0.407317 -0.407317 -0.913287 -124.221 1120.26)" fill="#EE6D8F"/>
<ellipse rx="156.63" ry="44.8126" transform="matrix(0.993642 0.112584 0.112584 -0.993642 1848.87 769.029)" fill="#EE6D8F"/>
</g>
</g>
<defs>
<clipPath id="clip0">
<rect width="1920" height="1440" fill="white"/>
</clipPath>
</defs>
</svg>
